flaticon/army-badges/badges.svg

<svg xmlns="http://www.w3.org/2000/svg" width="32" height="32" viewBox="0 0 24 24">
    <path d="M 22.460938 17.980469 L 23.941406 15.785156 C 24.019531 15.664062 24.019531 15.503906 23.941406 15.382812 C 23.859375 15.265625 23.742188 15.183594 23.582031 15.183594 L 21.183594 15.183594 L 21.183594 13.585938 C 21.183594 13.347656 21.023438 13.1875 20.785156 13.1875 L 19.070312 13.1875 C 19.71875 11.035156 20.027344 8.816406 20.027344 6.597656 L 20.027344 5.203125 C 20.027344 5.082031 19.945312 4.960938 19.828125 4.882812 L 12.238281 0.0898438 C 12.078125 0.0117188 11.921875 0.0117188 11.800781 0.0898438 L 4.214844 4.882812 C 4.09375 4.921875 4.011719 5.082031 4.011719 5.203125 L 4.011719 6.597656 C 4.011719 8.851562 4.320312 11.066406 4.964844 13.1875 L 3.214844 13.1875 C 2.976562 13.1875 2.816406 13.347656 2.816406 13.585938 L 2.816406 15.183594 L 0.417969 15.183594 C 0.257812 15.183594 0.140625 15.265625 0.101562 15.425781 C 0.0195312 15.542969 0.0195312 15.703125 0.101562 15.824219 L 1.539062 17.980469 L 0.0585938 20.175781 C -0.0195312 20.296875 -0.0195312 20.457031 0.0585938 20.574219 C 0.140625 20.695312 0.257812 20.777344 0.417969 20.777344 L 4.011719 20.777344 C 4.253906 20.777344 4.414062 20.617188 4.414062 20.375 L 4.414062 18.777344 L 7.699219 18.777344 C 8.75 20.707031 10.03125 22.316406 11.71875 23.851562 C 11.800781 23.929688 11.921875 23.96875 12 23.96875 C 12.078125 23.96875 12.121094 23.96875 12.160156 23.890625 C 12.199219 23.890625 12.199219 23.851562 12.238281 23.851562 C 13.964844 22.316406 15.25 20.707031 16.269531 18.777344 L 19.585938 18.777344 L 19.585938 20.375 C 19.585938 20.617188 19.746094 20.773438 19.988281 20.773438 L 23.582031 20.773438 C 23.742188 20.773438 23.820312 20.65625 23.898438 20.535156 C 23.980469 20.414062 23.980469 20.257812 23.898438 20.136719 Z M 4.8125 6.640625 L 4.8125 5.441406 L 12 0.886719 L 19.1875 5.402344 L 19.1875 6.597656 C 19.1875 8.835938 18.867188 11.03125 18.191406 13.1875 L 17.371094 13.1875 C 18.085938 11.035156 18.429688 8.816406 18.429688 6.597656 L 18.429688 6.078125 C 18.429688 5.960938 18.347656 5.839844 18.230469 5.761719 L 12.238281 1.964844 C 12.078125 1.886719 11.921875 1.886719 11.800781 1.964844 L 5.808594 5.761719 C 5.691406 5.800781 5.609375 5.960938 5.609375 6.078125 L 5.609375 6.597656 C 5.609375 8.851562 5.953125 11.066406 6.667969 13.1875 L 5.808594 13.1875 C 5.132812 11.070312 4.8125 8.835938 4.8125 6.640625 Z M 10.003906 7.996094 C 10.003906 6.878906 10.882812 6 12 6 C 13.117188 6 13.996094 6.878906 13.996094 7.996094 C 13.996094 9.113281 13.117188 9.992188 12 9.992188 C 10.882812 9.992188 10.003906 9.113281 10.003906 7.996094 Z M 12.039062 10.792969 C 13.4375 10.792969 14.59375 11.832031 14.796875 13.1875 L 9.246094 13.1875 C 9.445312 11.832031 10.640625 10.792969 12.039062 10.792969 Z M 15.570312 13.1875 C 15.433594 11.917969 14.644531 10.855469 13.542969 10.335938 C 14.300781 9.839844 14.796875 8.980469 14.796875 7.996094 C 14.796875 6.4375 13.558594 5.203125 12 5.203125 C 10.441406 5.203125 9.203125 6.4375 9.203125 7.996094 C 9.203125 8.980469 9.699219 9.839844 10.457031 10.335938 C 9.355469 10.855469 8.566406 11.917969 8.429688 13.1875 L 7.488281 13.1875 C 6.769531 11.070312 6.410156 8.835938 6.410156 6.597656 L 6.410156 6.28125 L 12 2.765625 L 17.589844 6.28125 L 17.589844 6.597656 C 17.589844 8.835938 17.230469 11.03125 16.511719 13.1875 Z M 3.613281 19.976562 L 1.179688 19.976562 L 2.375 18.179688 C 2.457031 18.058594 2.457031 17.859375 2.375 17.742188 L 1.179688 15.984375 L 2.816406 15.984375 L 2.816406 18.777344 C 2.816406 19.019531 2.976562 19.179688 3.214844 19.179688 L 3.613281 19.179688 Z M 12 23.011719 C 10.601562 21.734375 9.484375 20.375 8.605469 18.777344 L 9.621094 18.777344 C 10.277344 20.097656 11.035156 20.929688 11.71875 21.652344 C 11.800781 21.734375 11.878906 21.773438 12 21.773438 C 12.121094 21.773438 12.199219 21.734375 12.28125 21.652344 C 12.964844 20.929688 13.683594 20.097656 14.375 18.777344 L 15.394531 18.777344 C 14.476562 20.335938 13.398438 21.734375 12 23.011719 Z M 13.476562 18.777344 C 13 19.617188 12.480469 20.257812 12 20.777344 C 11.519531 20.257812 11 19.617188 10.523438 18.777344 Z M 16.195312 17.980469 C 16.140625 17.953125 16.082031 17.941406 16.035156 17.941406 L 7.925781 17.941406 C 7.859375 17.941406 7.792969 17.953125 7.734375 17.980469 L 3.613281 17.980469 L 3.613281 13.988281 L 20.386719 13.988281 L 20.386719 17.980469 Z M 20.386719 19.976562 L 20.386719 19.21875 L 20.785156 19.21875 C 21.023438 19.21875 21.183594 19.058594 21.183594 18.820312 L 21.183594 16.023438 L 22.820312 16.023438 L 21.625 17.78125 C 21.542969 17.898438 21.542969 18.101562 21.625 18.21875 L 22.820312 19.976562 Z M 20.386719 19.976562"/>
    <path d="M7.207031 15.585938L8.804688 15.585938C9.046875 15.585938 9.203125 15.425781 9.203125 15.183594 9.203125 14.945312 9.046875 14.785156 8.804688 14.785156L7.207031 14.785156C6.96875 14.785156 6.808594 14.945312 6.808594 15.183594 6.808594 15.425781 6.96875 15.585938 7.207031 15.585938zM10.402344 15.585938L12.796875 15.585938C13.039062 15.585938 13.199219 15.425781 13.199219 15.183594 13.199219 14.945312 13.039062 14.785156 12.796875 14.785156L10.402344 14.785156C10.164062 14.785156 10.003906 14.945312 10.003906 15.183594 10.003906 15.425781 10.164062 15.585938 10.402344 15.585938zM10.800781 16.382812L7.207031 16.382812C6.96875 16.382812 6.808594 16.542969 6.808594 16.78125 6.808594 17.023438 6.96875 17.179688 7.207031 17.179688L10.800781 17.179688C11.042969 17.179688 11.203125 17.023438 11.203125 16.78125 11.203125 16.542969 11.042969 16.382812 10.800781 16.382812zM16.792969 16.382812L15.992188 16.382812C15.753906 16.382812 15.59375 16.542969 15.59375 16.78125 15.59375 17.023438 15.753906 17.179688 15.992188 17.179688L16.792969 17.179688C17.03125 17.179688 17.191406 17.023438 17.191406 16.78125 17.191406 16.542969 17.03125 16.382812 16.792969 16.382812zM14.394531 16.382812L12.398438 16.382812C12.160156 16.382812 12 16.542969 12 16.78125 12 17.023438 12.160156 17.179688 12.398438 17.179688L14.394531 17.179688C14.636719 17.179688 14.796875 17.023438 14.796875 16.78125 14.796875 16.542969 14.636719 16.382812 14.394531 16.382812zM16.792969 14.785156L14.796875 14.785156C14.554688 14.785156 14.394531 14.945312 14.394531 15.183594 14.394531 15.425781 14.554688 15.585938 14.796875 15.585938L16.792969 15.585938C17.03125 15.585938 17.191406 15.425781 17.191406 15.183594 17.191406 14.945312 17.03125 14.785156 16.792969 14.785156zM16.792969 14.785156"/>
</svg>

<svg xmlns="http://www.w3.org/2000/svg" width="32" height="32" viewBox="0 0 24 24">
    <path d="M22.46 17.98l1.481-2.195a.375.375 0 0 0 0-.402.427.427 0 0 0-.359-.2h-2.398v-1.597c0-.238-.16-.399-.399-.399H19.07c.649-2.152.957-4.37.957-6.59V5.204c0-.121-.082-.242-.199-.32L12.238.09c-.16-.078-.316-.078-.437 0L4.215 4.883c-.121.039-.203.199-.203.32v1.395c0 2.254.308 4.468.953 6.59h-1.75c-.238 0-.399.16-.399.398v1.598H.418c-.16 0-.277.082-.316.242a.353.353 0 0 0 0 .398l1.437 2.156-1.48 2.196a.368.368 0 0 0 0 .398c.082.121.199.203.359.203h3.594c.242 0 .402-.16.402-.402v-1.598H7.7c1.051 1.93 2.332 3.54 4.02 5.075a.449.449 0 0 0 .281.117c.078 0 .121 0 .16-.078.04 0 .04-.04.078-.04 1.727-1.535 3.012-3.144 4.032-5.074h3.316v1.598c0 .242.16.398.402.398h3.594c.16 0 .238-.117.316-.238a.353.353 0 0 0 0-.398zM4.813 6.64V5.442L12 .887l7.188 4.515v1.196c0 2.238-.32 4.433-.997 6.59h-.82a20.863 20.863 0 0 0 1.059-6.59v-.52c0-.117-.082-.238-.2-.316l-5.992-3.797c-.16-.078-.316-.078-.437 0L5.809 5.762c-.118.039-.2.199-.2.316v.52c0 2.254.344 4.468 1.059 6.59h-.86a21.63 21.63 0 0 1-.995-6.547zm5.192 1.356C10.004 6.88 10.883 6 12 6s1.996.879 1.996 1.996A1.977 1.977 0 0 1 12 9.992a1.977 1.977 0 0 1-1.996-1.996zm2.035 2.797c1.399 0 2.555 1.039 2.758 2.395h-5.55c.198-1.356 1.394-2.395 2.792-2.395zm3.531 2.395a3.57 3.57 0 0 0-2.027-2.852 2.782 2.782 0 0 0 1.254-2.34A2.776 2.776 0 0 0 12 5.203a2.776 2.776 0 0 0-2.797 2.793c0 .984.496 1.844 1.254 2.34a3.57 3.57 0 0 0-2.027 2.851h-.942a20.528 20.528 0 0 1-1.078-6.59v-.316L12 2.766l5.59 3.515v.317c0 2.238-.36 4.433-1.078 6.59zM3.613 19.977H1.18l1.195-1.797a.42.42 0 0 0 0-.438L1.18 15.984h1.636v2.793c0 .243.16.403.399.403h.398zM12 23.012c-1.398-1.278-2.516-2.637-3.395-4.235h1.016c.656 1.32 1.414 2.153 2.098 2.875.082.082.16.121.281.121.121 0 .2-.039.281-.12.684-.723 1.403-1.555 2.094-2.876h1.02c-.918 1.559-1.997 2.957-3.395 4.235zm1.477-4.235c-.477.84-.997 1.48-1.477 2-.48-.52-1-1.16-1.477-2zm2.718-.797a.37.37 0 0 0-.16-.039h-8.11a.454.454 0 0 0-.19.04H3.612v-3.993h16.774v3.992zm4.192 1.997v-.758h.398c.238 0 .399-.16.399-.399v-2.797h1.636l-1.195 1.758a.42.42 0 0 0 0 .438l1.195 1.758zm0 0"/>
    <path d="M7.207 15.586h1.598c.242 0 .398-.16.398-.402 0-.239-.156-.399-.398-.399H7.207c-.238 0-.398.16-.398.399 0 .242.16.402.398.402zm0 0M10.402 15.586h2.395c.242 0 .402-.16.402-.402 0-.239-.16-.399-.402-.399h-2.395c-.238 0-.398.16-.398.399 0 .242.16.402.398.402zm0 0M10.8 16.383H7.208c-.238 0-.398.16-.398.398 0 .242.16.399.398.399h3.594c.242 0 .402-.157.402-.399 0-.238-.16-.398-.402-.398zm0 0M16.793 16.383h-.8c-.24 0-.4.16-.4.398 0 .242.16.399.4.399h.8c.238 0 .398-.157.398-.399 0-.238-.16-.398-.398-.398zm0 0M14.395 16.383h-1.997c-.238 0-.398.16-.398.398 0 .242.16.399.398.399h1.997c.242 0 .402-.157.402-.399 0-.238-.16-.398-.402-.398zm0 0M16.793 14.785h-1.996c-.242 0-.402.16-.402.399 0 .242.16.402.402.402h1.996c.238 0 .398-.16.398-.402 0-.239-.16-.399-.398-.399zm0 0"/>
</svg>
